dist/svg/file-lock-o.svg

<!-- Generated by Trend Micro Style Portal -->
<svg version="1.1" xmlns="http://www.w3.org/2000/svg" width="16" height="16" viewBox="0 0 16 16">
  <title>file-lock-o</title>
  <path fill="rgb(34,34,34)" d="M1 1h8v4h4v2h1v-3l-4-4h-9c-0.536 0.040-0.96 0.464-1 0.996l-0 0.004v14c0.040 0.536 0.464 0.96 0.996 1l0.004 0h6v-1h-6zM10 1.4l2.6 2.6h-2.6z"></path>
  <path fill="rgb(34,34,34)" d="M14 11v-3h-5v3h-1v5h7v-5zM12 14h-1v-1h1zM13 11h-3v-2h3z"></path>
</svg>

<svg width="16" height="16" viewBox="0 0 16 16" fill="rgb(34, 34, 34)" xmlns="http://www.w3.org/2000/svg"><title>file-lock-o</title><path d="M1 1H9V5H13V7H14V4L10 0H1C0.464 0.04 0.04 0.464 0 0.996V1V15C0.04 15.536 0.464 15.96 0.996 16H1H7V15H1V1ZM10 1.4L12.6 4H10V1.4Z" fill="rgb(34, 34, 34)" fill-opacity="1.00"/><path d="M14 11V8H9V11H8V16H15V11H14ZM12 14H11V13H12V14ZM13 11H10V9H13V11Z" fill="rgb(34, 34, 34)" fill-opacity="1.00"/></svg>
